X:1
T: Miss Robertson of Edinburgh
C:William Marshall
R:Strathspey
Q: 128
K:A
M:4/4
L:1/16
|:E2|AA3 A4 G2A2 B4|c2A2 A2E2 G2B2 B2c2|AA3 A2e2 dcBc d4|e2E2 G2A2 c2A2 A2E2|
AA3 A4 G2A2 B4|c2A2 A2E2 G2B2 B2c2|AA3 A2e2 dcBc d4|e2E2 G2A2 c2A2 A2cd|
e2f2 B2d2 c2e2 A2c2|F3B d3c BAGF E2cd|e2f2 B2d2 c2^d2 e2a2|g2f2 e2^d2 e2E2 E2c=d|
ec3 f4 dB3 B2e2|dF3 B2A2 G2E2 F2G2|A2A,2 C2A2 B2E2 G2B2|e2E2 G2A2 c2A2 A2:|
